lib/healthicons/icons/solid/people/doctor_female.svg

<svg fill="none" height="48" viewBox="0 0 48 48" width="48" xmlns="http://www.w3.org/2000/svg" xmlns:xlink="http://www.w3.org/1999/xlink"><mask id="a" fill="#fff"><path clip-rule="evenodd" d="m14.4326 33.4415c-.8594.5276-1.4326 1.4761-1.4326 2.5585 0 1.6568 1.3431 3 3 3s3-1.3432 3-3c0-1.5241-1.1364-2.7827-2.6081-2.9747-.0328-.1174-.067-.2528-.1018-.4048-.1198-.5234-.2341-1.1873-.3192-1.8694-.0853-.6832-.1382-1.3607-.1417-1.9137-.0013-.2026.0042-.3792.0154-.5273.3847-.1104.7705-.2099 1.1554-.2975.4413-.1005.7025.4204.9141.8425.0295.0587.058.1156.0859.1686h4.0639c.9158-.0002 1.3685-.0001 1.8264 0h.0001.0001.0002c.4474.0001.8999.0002 1.7944 0h4.0642c.2282-.4336.7479-1.1256 1.2507-1.0111.5363.1221 1.0745.2671 1.6089.4329l-.0033.0017c-.0012-.0023-.0011-.0019.0001.0014v.0001c.0047.0141.0267.0793.0485.2211.0249.1615.0422.3713.0493.6238.0142.5044-.0141 1.1174-.0738 1.735-.0598.617-.1486 1.2143-.2486 1.6857-.0221.1044-.0442.1998-.0659.2857h-1.3152c-.3788 0-.725.214-.8944.5528l-1 2c-.0695.1388-.1056.2919-.1056.4472v2c0 .5523.4477 1 1 1h2v-2h-1v-.764l.618-1.236h2.764l.618 1.236v.764h-1v2h2c.5523 0 1-.4477 1-1v-2c0-.1553-.0361-.3084-.1056-.4472l-1-2c-.1694-.3388-.5156-.5528-.8944-.5528h-.6357c.1068-.5327.1957-1.1552.256-1.7787.0653-.674.0995-1.3735.0824-1.9837l-.0008-.0275c3.9876 1.6847 7.2981 4.456 7.2981 7.3598v5.4301h-36v-5.4301c0-3.0323 3.60993-5.92 7.831-7.5769.0114.6216.0703 1.3252.1552 2.0058.0917.7346.2167 1.4665.3544 2.0681.0295.1289.0602.2544.092.3746zm1.5674 3.5732c.5384 0 1-.4405 1-1.0147 0-.5743-.4616-1.0147-1-1.0147s-1 .4404-1 1.0147c0 .5742.4616 1.0147 1 1.0147z" fill="#fff" fill-rule="evenodd"/></mask><g fill="#333"><path clip-rule="evenodd" d="m14.4326 33.4415c-.8594.5276-1.4326 1.4761-1.4326 2.5585 0 1.6568 1.3431 3 3 3s3-1.3432 3-3c0-1.5241-1.1364-2.7827-2.6081-2.9747-.0328-.1174-.067-.2528-.1018-.4048-.1198-.5234-.2341-1.1873-.3192-1.8694-.0853-.6832-.1382-1.3607-.1417-1.9137-.0013-.2026.0042-.3792.0154-.5273.3847-.1104.7705-.2099 1.1554-.2975.4413-.1005.7025.4204.9141.8425.0295.0587.058.1156.0859.1686h4.0639c.9158-.0002 1.3685-.0001 1.8264 0h.0001.0001.0002c.4474.0001.8999.0002 1.7944 0h4.0642c.2282-.4336.7479-1.1256 1.2507-1.0111.5363.1221 1.0745.2671 1.6089.4329l-.0033.0017c-.0012-.0023-.0011-.0019.0001.0014v.0001c.0047.0141.0267.0793.0485.2211.0249.1615.0422.3713.0493.6238.0142.5044-.0141 1.1174-.0738 1.735-.0598.617-.1486 1.2143-.2486 1.6857-.0221.1044-.0442.1998-.0659.2857h-1.3152c-.3788 0-.725.214-.8944.5528l-1 2c-.0695.1388-.1056.2919-.1056.4472v2c0 .5523.4477 1 1 1h2v-2h-1v-.764l.618-1.236h2.764l.618 1.236v.764h-1v2h2c.5523 0 1-.4477 1-1v-2c0-.1553-.0361-.3084-.1056-.4472l-1-2c-.1694-.3388-.5156-.5528-.8944-.5528h-.6357c.1068-.5327.1957-1.1552.256-1.7787.0653-.674.0995-1.3735.0824-1.9837l-.0008-.0275c3.9876 1.6847 7.2981 4.456 7.2981 7.3598v5.4301h-36v-5.4301c0-3.0323 3.60993-5.92 7.831-7.5769.0114.6216.0703 1.3252.1552 2.0058.0917.7346.2167 1.4665.3544 2.0681.0295.1289.0602.2544.092.3746zm1.5674 3.5732c.5384 0 1-.4405 1-1.0147 0-.5743-.4616-1.0147-1-1.0147s-1 .4404-1 1.0147c0 .5742.4616 1.0147 1 1.0147z" fill-rule="evenodd"/><path d="m14.4326 33.4415 1.0464 1.7044 1.2669-.7778-.3797-1.4374zm1.9593-.4162-1.9264.5376.3556 1.2745 1.3121.1711zm-.1018-.4048 1.9496-.4463zm-.3192-1.8694 1.9846-.2476zm-.1417-1.9137-1.9999.0126zm.0154-.5273-.5518-1.9224-1.3378.384-.1048 1.3879zm1.1554-.2975-.4441-1.9501zm.9141.8425 1.7879-.8965zm.0859.1686-1.7697.9317.5624 1.0683h1.2073zm4.0639 0v2h.0005zm1.8264 0-.0004 2h.0004zm.0004 0 .0004-2h-.0004zm1.7944 0v-2h-.0004zm4.0642 0v2h1.2073l.5624-1.0683zm1.2507-1.0111.4441-1.9501zm1.6089.4329.8944 1.7889 4.4501-2.2249-4.7519-1.4742zm-.0033.0017-1.7882.8959.8952 1.7866 1.7873-.8936zm.0001.0014 1.9485-.4507-.0219-.0948-.031-.0922zm0 .0001-1.9486.4507.0222.0959.0315.0933zm0 0 1.8956-.6377-.0007-.0023zm.0485.2211 1.9767-.3045zm.0493.6238-1.9992.0561zm-.0738 1.735-1.9907-.1926zm-.2486 1.6857 1.9565.4151v-.0001zm-.0659.2857v2h1.5577l.3814-1.5103zm-2.2096.5528 1.7888.8944zm-1 2 1.7888.8944zm2.8944 3.4472v2h2v-2zm0-2h2v-2h-2zm-1 0h-2v2h2zm0-.764-1.7889-.8944-.2111.4223v.4721zm.618-1.236v-2h-1.236l-.5528 1.1055zm2.764 0 1.7888-.8945-.5528-1.1055h-1.236zm.618 1.236h2v-.4721l-.2111-.4223zm0 .764v2h2v-2zm-1 0v-2h-2v2zm0 2h-2v2h2zm2.8944-3.4472 1.7889-.8945zm-1-2 1.7889-.8945zm-1.5301-.5528-1.9609-.3934-.4801 2.3934h2.441zm.256-1.7787 1.9907.1926zm.0824-1.9837 1.9992-.0561v-.0026zm-.0008-.0275.7784-1.8423-2.8689-1.2122.0914 3.1132zm7.2981 12.7899v2h2v-2zm-36 0h-2v2h2zm7.831-13.007 1.9997-.0365-.0524-2.8765-2.6781 1.0513zm.1552 2.0058-1.9846.2476zm.3544 2.0681-1.9496.4464zm.6594 2.9331c0-.3585.1873-.675.479-.8541l-2.0929-3.4088c-1.4271.8762-2.3861 2.4567-2.3861 4.2629zm1 1c-.5523 0-1-.4477-1-1h-4c0 2.7614 2.2386 5 5 5zm1-1c0 .5523-.4477 1-1 1v4c2.7614 0 5-2.2386 5-5zm-.8668-.9915c.4885.0638.8668.485.8668.9915h4c0-2.5417-1.8946-4.6376-4.3494-4.9579zm2.1851-2.5207c-.0229-.0821-.0495-.1867-.0786-.3136l-3.8991.8927c.0405.1769.0823.3432.1249.496zm-.0786-.3136c-.1019-.4453-.2057-1.0413-.2842-1.6707l-3.9693.4953c.0917.7346.2167 1.4665.3544 2.0681zm-.2842-1.6707c-.079-.6332-.1235-1.2281-.1263-1.6786l-3.9999.0251c.0041.6554.0654 1.4154.1569 2.1488zm-.1263-1.6786c-.001-.1622.0036-.2828.0097-.3643l-3.9887-.301c-.0162.2147-.0225.4474-.0209.6904zm-1.2733-2.7624c-.4219.0961-.8436.2048-1.2631.3252l1.1036 3.8448c.3499-.1005.6998-.1906 1.0477-.2698zm3.1461 1.8961c-.0764-.1523-.3035-.6316-.644-1.0266-.3794-.4401-1.2493-1.1547-2.5021-.8695l.8882 3.9002c-.3343.0761-.6841.0331-.9801-.103-.2572-.1182-.396-.27-.4356-.316-.0428-.0495-.0486-.0687-.0193-.0175.0287.05.0601.1115.1172.2253zm.0677.1334c-.0169-.0322-.0363-.0707-.0677-.1334l-3.5757 1.7929c.0275.0549.0651.1301.104.2039zm2.2942-1.0683h-4.0639v4h4.0639zm1.8268 0c-.4581-.0001-.911-.0002-1.8272 0l.0009 4c.9154-.0002 1.3677-.0001 1.8255 0zm-.0003 0h-.0001v4h.0001zm.0001 0h-.0001v4h.0001zm.0002 0h-.0002v4h.0002zm0 0v4zm0 0v4zm0 0v4zm1.794 0c-.8941.0002-1.3464.0001-1.7936 0l-.0008 4c.4475.0001.9003.0002 1.7952 0zm4.0646 0h-4.0642v4h4.0642zm1.6948-.9612c-1.2951-.2949-2.2327.4949-2.5589.8088-.4189.4029-.7245.8765-.9057 1.2207l3.5395 1.8634c.0161-.0305.044-.0775.0784-.1257.0163-.0228.0311-.0416.0432-.056.0124-.0147.0187-.0207.0176-.0197-.0005.0005-.0149.0145-.0445.0358-.0289.0208-.084.0572-.1659.0942-.1676.0757-.491.1699-.8919.0787zm1.7574.4728c-.5819-.1805-1.1697-.3389-1.7574-.4728l-.8882 3.9002c.4848.1104.9735.242 1.4604.393zm.2984 3.7008.0034-.0017-1.7888-3.5778-.0033.0017zm1.0014-2.4252c-.002-.0059.0021.0063.0062.0189.0018.0056.009.0277.0174.0563.0041.0143.0121.0423.021.0779.0056.0226.0272.1092.042.2223.0066.0508.0222.1803.015.3464-.0019.0422-.0043.6393-.4556 1.1861-.2954.3579-.7477.6468-1.3073.713-.4962.0588-.8822-.0808-1.0823-.1743-.3643-.1703-.58-.4094-.6194-.4518-.1317-.1421-.2127-.2734-.2221-.2882-.0269-.0425-.0465-.0769-.0552-.0924-.0182-.0325-.0315-.0583-.0344-.0639-.0047-.0093-.0083-.0165-.0092-.0181l3.5763-1.7918c-.0011-.0022-.005-.0099-.0099-.0196-.0031-.006-.0166-.0322-.0349-.0648-.0088-.0157-.0284-.0502-.0554-.0927-.0095-.015-.0904-.1463-.2222-.2884-.0394-.0424-.2551-.2815-.6194-.4518-.2001-.0936-.5862-.2332-1.0824-.1744-.5595.0663-1.0118.3551-1.3072.7131-.4513.5468-.4538 1.1439-.4556 1.1861-.0073.1661.0083.2957.015.3465.0148.1131.0364.1998.042.2225.0089.0357.0169.0639.0211.0782.0085.029.0158.0514.0178.0576.0028.0088.0052.0158.0059.018.0005.0015.0009.0028.0011.0034.0003.0007.0005.0013.0005.0014zm.0529.187-3.8971.9015zm-.0536-.1892h-.0001l-3.7897 1.2799h.0001zm.1303.5566c-.0403-.2619-.0906-.4385-.1296-.5543l-3.7912 1.2754s-.0027-.0078-.0058-.0177c-.0031-.0097-.0062-.0196-.0092-.0296-.006-.0201-.0104-.0368-.0136-.0497-.0063-.0255-.0065-.0319-.0039-.015zm.0718.8723c-.0085-.3047-.0302-.6027-.0718-.8723l-3.9533.6091c.0082.0532.0211.1749.0267.3753zm-.0824 1.9837c.0653-.674.0995-1.3735.0824-1.9837l-3.9984.1121c.0112.3985-.011.9249-.0653 1.4863zm-.2827 1.908c.1188-.5598.2175-1.2333.2827-1.908l-3.9813-.3853c-.0542.5592-.1331 1.0803-.2143 1.4633zm-.0833.3604c.0287-.1136.0565-.234.0833-.3603l-3.9129-.8301c-.0175.0825-.0339.1528-.0486.2109zm-3.2543 1.5103h1.3152v-4h-1.3152zm.8944-.5528c-.1694.3388-.5156.5528-.8944.5528v-4c-1.1363 0-2.1751.642-2.6833 1.6583zm-1 2 1-2-3.5777-1.7889-1 2zm.1056-.4472c0 .1552-.0361.3083-.1056.4472l-3.5777-1.7889c-.2083.4166-.3167.8759-.3167 1.3417zm0 2v-2h-4v2zm-1-1c.5523 0 1 .4477 1 1h-4c0 1.6568 1.3431 3 3 3zm2 0h-2v4h2zm-2 0v2h4v-2zm1 2h1v-4h-1zm-2-2.764v.764h4v-.764zm.8292-2.1305-.6181 1.2361 3.5778 1.7889.618-1.2361zm4.5528-1.1055h-2.764v4h2.764zm2.4069 2.3416-.6181-1.2361-3.5777 1.7889.618 1.2361zm.2111 1.6584v-.764h-4v.764zm-3 2h1v-4h-1zm2 0v-2h-4v2zm0-2h-2v4h2zm-1 1c0-.5523.4477-1 1-1v4c1.6569 0 3-1.3432 3-3zm0-2v2h4v-2zm.1056.4472c-.0695-.1389-.1056-.292-.1056-.4472h4c0-.4658-.1084-.9251-.3167-1.3417zm-1-2 1 2 3.5777-1.7889-1-2zm.8944.5528c-.3788 0-.725-.214-.8944-.5528l3.5777-1.7889c-.5082-1.0163-1.547-1.6583-2.6833-1.6583zm-.6357 0h.6357v-4h-.6357zm-1.7346-3.9714c-.0551.5688-.1351 1.1231-.2263 1.578l3.9218.7867c.1225-.6104.2202-1.3011.2858-1.9794zm.0738-1.735c.0142.5044-.0141 1.1174-.0738 1.735l3.9813.3853c.0707-.7302.111-1.5164.0909-2.2324zm-.0007-.0248.0008.0275 3.9983-.1174-.0008-.0275zm11.2972 7.3011c0-2.2277-1.2553-4.1346-2.7724-5.5835-1.5461-1.4764-3.5952-2.7094-5.7473-3.6186l-1.5568 3.6846c1.8355.7755 3.4354 1.7705 4.5415 2.8268 1.135 1.0839 1.535 2.0145 1.535 2.6907zm0 5.4301v-5.4301h-4v5.4301zm-38 2h36v-4h-36zm-2-7.4301v5.4301h4v-5.4301zm9.1002-9.4386c-2.2758.8933-4.46241 2.1448-6.11744 3.6586-1.61842 1.4803-2.98276 3.4559-2.98276 5.78h4c0-.7082.44063-1.6926 1.68244-2.8285 1.20516-1.1023 2.93416-2.1232 4.87936-2.8867zm-1.2688 1.8981c.0129.7113.0793 1.4882.1702 2.217l3.9693-.4953c-.079-.6324-.1305-1.2627-.1402-1.7946zm.1702 2.217c.0983.7873.2338 1.5871.3894 2.2669l3.8991-.8928c-.1198-.5234-.2341-1.1873-.3192-1.8694zm.3894 2.2669c.0338.1472.0697.2945.1079.4391l3.8673-1.0217c-.0253-.0959-.0507-.1996-.0761-.3102zm2.609 2.4867c0-.5387.4422-.9853 1-.9853v4c1.6346 0 3-1.3276 3-3.0147zm1 .9853c-.5578 0-1-.4467-1-.9853h4c0-1.6872-1.3654-3.0147-3-3.0147zm1-.9853c0 .5386-.4422.9853-1 .9853v-4c-1.6346 0-3 1.3275-3 3.0147zm-1-.9853c.5578 0 1 .4466 1 .9853h-4c0 1.6871 1.3654 3.0147 3 3.0147z" mask="url(#a)"/><path d="m13 20.1719c0 4.6387 7.99 5.8281 7.99 5.8281s-5.2263-8.9801-2.49-10.5263c2.7363-1.5463 9.4527-4.2284 10-3.1579 5.0348 7.6122-.9428 13.6842-.9428 13.6842s7.4428-.7136 7.4428-5.8281-3.5025-11.01401-3.5025-11.01401-2.5174-3.15789-7.4428-3.15789c-4.9253 0-6.6766 3.15789-6.6766 3.15789s-4.3781 6.37531-4.3781 11.01401z"/></g></svg>

<svg width="48" height="48" viewBox="0 0 48 48" fill="none" xmlns="http://www.w3.org/2000/svg">
<path fill-rule="evenodd" clip-rule="evenodd" d="M17.9135 23.7587C15.9528 23.238 12 21.7771 12 18.4633C12 14.0565 17.3781 8 17.3781 8C17.3781 8 19.1294 5 24.0547 5C28.9801 5 31.4975 8 31.4975 8C31.4975 8 35 11.9266 35 18.4633C35 21.8311 33.0243 23.1983 31.1087 23.7325C29.5532 25.5835 27.1541 26.7561 24.5 26.7561C21.8585 26.7561 19.4695 25.5946 17.9135 23.7587ZM18.4952 20.9173C19.4188 23.1409 21.727 24.7561 24.5 24.7561C25.6398 24.7561 26.701 24.4832 27.6199 24.0074C27.5789 24.0029 27.5572 24 27.5572 24C27.5572 24 33.5348 18.2316 28.5 11C27.9527 9.98305 19.6219 12.5 18.5 14C17.8264 14.9006 18.1383 18.3247 18.4952 20.9173Z" fill="#333333"/>
<path d="M14.4326 33.4416C13.5732 33.9692 13 34.9177 13 36C13 37.6569 14.3431 39 16 39C17.6569 39 19 37.6569 19 36C19 34.476 17.8636 33.2174 16.3919 33.0254C16.3591 32.9079 16.3249 32.7725 16.2901 32.6206C16.1703 32.0972 16.056 31.4332 15.9709 30.7512C15.8856 30.0679 15.8327 29.3904 15.8292 28.8375C15.8279 28.6348 15.8334 28.4582 15.8446 28.3101C16.2293 28.1997 16.6151 28.1003 17 28.0126C17.4413 27.9121 17.7025 28.433 17.9141 28.8551C17.9178 28.8624 17.9215 28.8698 17.9252 28.8771C17.9507 28.9281 17.9756 28.9774 18 29.0237H22.0639C22.9727 29.0235 23.4254 29.0236 23.8797 29.0237H23.898C24.3428 29.0238 24.7957 29.0239 25.6851 29.0237H29.7493C29.9775 28.5902 30.4972 27.8981 31 28.0126C31.5363 28.1348 32.0745 28.2798 32.6089 28.4456L32.6056 28.4472C32.6044 28.4449 32.6045 28.4453 32.6057 28.4487C32.6104 28.4627 32.6324 28.5281 32.6542 28.6699C32.6791 28.8313 32.6964 29.0411 32.7035 29.2937C32.7177 29.798 32.6894 30.411 32.6297 31.0287C32.5699 31.6456 32.4811 32.2429 32.3811 32.7144C32.359 32.8188 32.3369 32.9141 32.3152 33H31C30.6212 33 30.275 33.214 30.1056 33.5528L29.1056 35.5528C29.0361 35.6916 29 35.8448 29 36V38C29 38.5523 29.4477 39 30 39H32V37H31V36.2361L31.618 35H34.382L35 36.2361V37H34V39H36C36.5523 39 37 38.5523 37 38V36C37 35.8448 36.9639 35.6916 36.8944 35.5528L35.8944 33.5528C35.725 33.214 35.3788 33 35 33H34.3643C34.4711 32.4673 34.56 31.8448 34.6203 31.2213C34.6856 30.5473 34.7198 29.8478 34.7027 29.2376L34.7019 29.2101C38.6895 30.8949 42 33.6661 42 36.5699V42H6V36.5699C6 33.5376 9.60993 30.6499 13.831 28.993C13.8424 29.6146 13.9013 30.3182 13.9862 30.9988C14.0779 31.7335 14.2029 32.4653 14.3406 33.0669C14.3701 33.1958 14.4008 33.3213 14.4326 33.4416Z" fill="#333333"/>
<path d="M16 37.0147C16.5384 37.0147 17 36.5742 17 36C17 35.4258 16.5384 34.9853 16 34.9853C15.4616 34.9853 15 35.4258 15 36C15 36.5742 15.4616 37.0147 16 37.0147Z" fill="#333333"/>
</svg>
